X:1
T:Rimsky-Korsakov harmonic exercises 22
T:Rimsky-Korsakov harmonic exercises 22
T:Realizations by S. Shchetnikov
T:"Practical Manual of Harmony" (1885)
C:Realizations by S. Shchetnikov
%%score { ( 1 2 ) | ( 3 4 ) }
L:1/8
Q:1/2=130
M:4/1
K:C
V:1 treble nm="Piano" snm="Pno."
V:2 treble 
V:3 bass 
V:4 bass 
V:1
"""^Seventh chord ii""^Examples by Rimsky-Korsakov:""_C:" e8"" d8"""" d8"" c8 |] %1
[M:5/1]"" c8-"" c8"" c8"" B8"" c8 |]"" G8"" A8"" A8"" G8"" G8 |]"""_C:" e8"" f8"" d8"""" d8"" c8 |] %4
[M:4/1]"" c8-"" c8"" B8"" c8 |]"" A8"" A8"" G8"" G8 |]"""_C:" A8"" A8"" G8"" G8 |] %7
[M:5/1]"" e8"" d8"" e8"""" d8"" c8 |]"""_C:" c8"" d8"" e8"""" d8"" c8 |] %9
[M:4/1]"" e8"" d8"" d8"" c8 |][M:5/1]"""^Passing six-four chord vi⁶₄:" f8"" e8"" d8"""" d8"" c8 |] %11
[M:3/4]""[Q:1/4=80]"^Example 22 by Rimsky-Korsakov:""_a:" c2"""" B4 |"" e2"" d2"" c2 | %13
"""" B4"" ^G2 |"" A2"" B2"" c2 |"" d2"" B2"" e2 |"" ^G2"" A2"" d2 |"""""" B6 |"" A6 |] %19
[K:Bb][M:2/4] z4 | z4 | z4 | z4 | z4 | z4 | z4 | z4 |]"""""^Realization 22.1""_g:" G4 |"""" A4 | %29
"" G2"" B2 |"" A2"" c2 |"" B2"" d2 |"" d2"" e2 |"" d2"" ^F2 |"" G4 |] %35
V:2
 G8 !courtesy!_A8 G4 F4 E8 |][M:5/1] G8 !courtesy!_A8 G8 G8 G8 |] C8 C8- C8 B,8 C8 |] %3
 G8 F8 A8 G4 F4 E8 |][M:4/1] G8 F8- F8 E8 |] C8- C8 B,8 C8 |] E8 F8- F8 E8 |] %7
[M:5/1] G8 F8 G8 G4 F4 E8 |] E8 F8 G8 G4 F4 E8 |][M:4/1] c8 A8 G8 G8 |][M:5/1] A8 A8 A8 G4 F4 E8 |] %11
[M:3/4] E2 F2 E2 | E6 | F2 E4 | E6 | F2 E4 | E4 D2 | F2 E2 D2 | C6 |][K:Bb][M:2/4] x4 | x4 | x4 | %22
 x4 | x4 | x4 | x4 | x4 |] D2 E2 | E4 | D2 G2 | ^F4 | G2 A2 | G4 | G2 D2 | D4 |] %35
V:3
 C8-"_Ties mark the preparation of seventh of the chord" C8 B,8 C8 |][M:5/1] E8 D8 E8 D8 E8 |] %2
 E,8 E,8 D,8 D,8 C,8 |] C8 C8- C8 B,8 C8 |][M:4/1] G,8 A,8 G,8 G,8 |] F,8 F,8- F,8 E,8 |] %6
 C8- C8 B,8 C8 |][M:5/1] C8- C8 C8 B,8 C8 |] C8- C8 C8 B,8 C8 |][M:4/1] G8 F8- F8 E8 |] %10
[M:5/1] C8 C8 C8 B,8 C8 |][M:3/4] A,4 ^G,2 | A,2 ^G,2 A,2 | A,2 ^G,2 B,2 | A,2 ^G,2 A,2 | %15
 A,2 ^G,2 A,2 | D2 C2 A,2 | A,2 ^G,4 | A,6 |][K:Bb][M:2/4]"^Exercise 22.1" G,2 E,2 | C,4 | %21
 B,,2 G,,2 | D,4 | G,2 ^F,2 | G,2 C,2 | D,4 | G,,4 |] B,2 G,2- | G,2 ^F,2 | G,2 D2 | D4 | D4 | %32
 B,2 A,2 | B,2 C2 | B,4 |] %35
V:4
 C,8 F,8 G,8 C,8 |][M:5/1] C,8 F,8 G,8 G,8 C,8 |] C,8 A,,8 F,,8- F,,8 E,,8 |] C8 A,8 F,8 G,8 C,8 |] %4
[M:4/1] E,8 D,8 D,8 C,8 |] F,8 D,8 D,8 C,8 |] A,8 D,8 G,8 C,8 |][M:5/1] C8 A,8 G,8 G,8 C,8 |] %8
 A,8 A,8 G,8 G,8 C,8 |][M:4/1] C8- C8 B,8 C8 |][M:5/1] D,8 E,8 F,8 G,8 C,8 |][M:3/4] A,,2 D,4 | %12
 C,2 B,,2 A,,2 | D,2 E,2 D,2 | C,2 B,,2 A,,2 | D,2 E,2 C,2 | B,,2 A,,2 F,2 | D,2 E,4 | A,,6 |] %19
[K:Bb][M:2/4] x4 | x4 | x4 | x4 | x4 | x4 | x4 | x4 |] G,2 E,2 | C,4 | B,,2 G,,2 | D,4 | G,2 ^F,2 | %32
 G,2 C,2 | D,4 | G,,4 |] %35

